X:1
T:Title
%%score ( 1 2 ) { 3 | 4 }
L:1/8
Q:1/4=120
M:4/2
K:F
V:1 treble nm="Grand Piano"
V:2 treble 
V:3 treble nm="Grand Piano"
V:4 bass 
V:1
 z8 z4 .[CF]2 [FA]2 | [Ac]4 [Ac]4 [Ac]2 [GB]2 [FA]2 [EG]2 | z8 z4 .F4 | [FA]6 [FA]2 A2 c2 .B2 A2 | %4
 G4- [FG-]4 [EG]4 [CF]2 [FA]2 | [Ac]4 [Ac]4 [Ac]2 [GB]2 [FA]2 [EG]2 | F4 [DF]4 [CF]2 C2 F2 G2 | %7
 [FA]2 [Ac]4 [GB]2 [FA]4 [CG]4 |[M:12/4] [CF]12 F2 G2 [FA]2 B4- [FB]2 | %9
 d4- [Fd-]2 [Fd]6 d2 c2 [EB]2 A4- [FA]2 | c4- [Fc-]2 [Fc]6 c2 B2 [FA]2 [EG]4 [EB]2 | %11
 [EB]4 [EB]2 [EB]4 [Ed]2 [Fc]4 [EB]2 [FA]6 | [EB]6 [Fc]6 F2 G2 [FA]2 B4- [FB]2 | %13
 d4- [Bd-]2 [Bd]6 d2 c2 [FB]2 A4- [FA]2 | c4- [Fc-]2 [Fc]6 c2 d2 [Be]2 f4- [ef]2 | .d6 c6 c6 z6 | %16
 z24 |] %17
V:2
 x16 | x16 | F4 [DF]4 [CF]2 C2 C2- [CG]2 | z8 F4 F4 | C4 z4 z8 | x16 | z8 z4 C4 | x16 | %8
[M:12/4] z12 .D6 .F6 | .F6 z6 .F6 .F6 | .F6 z6 .F6 z6 | x24 | z12 z6 .F6 | .B6 z6 .F6 .F6 | %14
 .F6 z6 .F6 .c6 | f4- [Bf]2 A4 A2 G4 E2 [CF]6- | [CF]12 z12 |] %17
V:3
 z8 z4 A,2 C2 | F4 C4 C4 C2[K:bass] B,2 | A,4 B,4 A,4 A,2 B,2 | C6 C2 C4 C4 | C4 =B,4 C4 A,2 C2 | %5
 F4 C4 C4 C2[K:bass] B,2 | A,4 B,4 A,4 A,2 B,2 | C2 F4 D2 C4 B,4 | %8
[M:12/4][K:bass] A,12 A,2 B,2 C2 D6 | B,12 z2[K:treble] .C2 .C2 C6 | %10
 A,12 A,2[K:bass] B,2 C2 B,4 G,2 | G,4 G,2[K:treble] C4 C2 C4 C2 C6 | C6 C6 E4 E2 D6 | %13
 F12 F2 C2 D2 C6 | A,6 z6 C4 C2 C4 C2 | F4 D2 C4[K:bass] C2 B,4 G,2 A,6- | A,12 z12 |] %17
V:4
 z8 z4 F,4 | F,4 F,4 E,4 C,4 | F,4 F,4 F,4 F,4 | F,6 F,2 F,2 A,2 G,2 F,2 | E,4 D,4 C,4 F,4 | %5
 F,4 F,4 E,4 C,4 | F,4 F,4 F,4 F,4 | F,6 B,,2 C,4 C,4 |[M:12/4] F,12 F,4 F,2 B,,4 B,,2 | %9
 B,,4 B,,2 B,,6 .B,2 .A,2 .G,2 F,4 F,2 | F,4 F,2 F,6 F,4 F,2 C,4 C,2 | %11
 C,4 C,2 C,4 B,2 A,4 G,2 F,6 | G,6 A,6 A,2 G,2 F,2 B,4 B,2 | B,4 B,2 B,6 B,4 B,2 F,4 F,2 | %14
 F,4 F,2 F,6 F,4 G,2 A,4 A,2 | B,4 B,2 z6 C,4 C,2 F,6- | F,12 z12 |] %17

